build/svg/cmd/sc_patternfield.svg

<?xml version="1.0" encoding="UTF-8" standalone="no"?>
<svg
   xmlns:dc="http://purl.org/dc/elements/1.1/"
   xmlns:cc="http://creativecommons.org/ns#"
   xmlns:rdf="http://www.w3.org/1999/02/22-rdf-syntax-ns#"
   xmlns:svg="http://www.w3.org/2000/svg"
   xmlns="http://www.w3.org/2000/svg"
   xmlns:sodipodi="http://sodipodi.sourceforge.net/DTD/sodipodi-0.dtd"
   xmlns:inkscape="http://www.inkscape.org/namespaces/inkscape"
   viewBox="0 0 16 16"
   version="1.1"
   id="svg4"
   sodipodi:docname="sc_patternfield.svg"
   inkscape:version="0.92.5 (2060ec1f9f, 2020-04-08)"
   inkscape:export-filename="/home/jupiter007/Libreoffice yaru theme fullcolor/build/cmd/sc_patternfield.png"
   inkscape:export-xdpi="95"
   inkscape:export-ydpi="95"><metadata
   id="metadata10">
  <rdf:RDF>
    <cc:Work
       rdf:about="">
      <dc:format>image/svg+xml</dc:format>
      <dc:type
         rdf:resource="http://purl.org/dc/dcmitype/StillImage" />
    </cc:Work>
  </rdf:RDF>
</metadata>
<defs
   id="defs8" />
<sodipodi:namedview
   pagecolor="#ffffff"
   bordercolor="#666666"
   borderopacity="1"
   objecttolerance="10"
   gridtolerance="10"
   guidetolerance="10"
   inkscape:pageopacity="0"
   inkscape:pageshadow="2"
   inkscape:window-width="1920"
   inkscape:window-height="1011"
   id="namedview6"
   showgrid="true"
   inkscape:zoom="59"
   inkscape:cx="6.1515363"
   inkscape:cy="7.5486585"
   inkscape:window-x="0"
   inkscape:window-y="32"
   inkscape:window-maximized="1"
   inkscape:current-layer="svg4">
  <inkscape:grid
     type="xygrid"
     id="grid827" />
</sodipodi:namedview>

/&gt;<path
   sodipodi:nodetypes="cccscsccccccccscscccccc"
   inkscape:connector-curvature="0"
   id="path4237-1"
   d="m 4.9941162,1.9997085 c -1.2582,0.0145 -2.178891,-0.030604 -2.931641,0.3847656 -0.37637,0.20766 -0.673231,0.5593869 -0.837891,0.9980469 -0.16467,0.43867 -0.22460895,0.9595875 -0.22460895,1.6171875 v 1.488281 4.5123015 c 0,0.65761 0.0599,1.178578 0.22460895,1.617189 0.16468,0.438611 0.461531,0.788524 0.837891,0.996093 0.75272,0.41513 1.673541,0.371649 2.931641,0.386718 h 0.002 6.0058588 0.0039 c 1.25819,-0.0145 2.178891,0.0306 2.931641,-0.384766 0.37637,-0.20766 0.673221,-0.559386 0.837891,-0.998046 0.164539,-0.438671 0.224618,-0.959578 0.224618,-1.617188 V 6.4665055 4.9997085 c 0,-0.6576 -0.0599,-1.1785775 -0.224609,-1.6171875 -0.16468,-0.4386 -0.461531,-0.7885338 -0.837891,-0.9960937 -0.75277,-0.41513 -1.673601,-0.3716388 -2.931691,-0.3867188 h -0.002 -6.0058589 z"
   style="font-style:normal;font-variant:normal;font-weight:normal;font-stretch:normal;font-size:15px;line-height:125%;font-family:Ubuntu;-inkscape-font-specification:Ubuntu;text-align:center;letter-spacing:0px;word-spacing:0px;writing-mode:lr-tb;text-anchor:middle;display:inline;opacity:0.6;fill:#000000;fill-opacity:1;stroke:none;stroke-width:0.99980211" />
<path
   inkscape:connector-curvature="0"
   id="path1993"
   d="m 7.9833442,3.0268933 c -1.556581,0.010796 -3.10999,-0.011752 -4.659941,0.038775 -0.461229,0.042668 -1.016188,0.2064194 -1.15534,0.7099668 -0.218994,0.6353464 -0.108414,1.3337872 -0.145796,1.9819243 -0.0078,2.2970841 -0.02297,3.5964281 0.02152,5.8857806 0.0391,0.461928 0.2025511,1.012665 0.698756,1.163665 0.632456,0.225082 1.284144,0.12274 1.935974,0.154299 1.424235,0.0068 2.850563,0.01102 4.2764201,0.01131 1.7045307,3.49e-4 1.4083877,-0.005 3.1071897,-0.01851 0.511911,-0.01201 1.183699,0.01993 1.584745,-0.405191 0.421097,-0.539783 0.287073,-1.268022 0.322745,-1.903787 0.01187,-2.4443235 0.02769,-3.9110955 -0.0219,-6.356795 C 13.898441,3.8862907 13.777725,3.4253789 13.372578,3.2438558 12.704409,2.9497584 11.946373,3.0758369 11.246657,3.0382831 9.4922497,3.0264805 9.7377828,3.0257987 7.9833442,3.0268933 Z"
   style="opacity:1;vector-effect:none;fill:#a6d74f;fill-opacity:1;stroke:none;stroke-width:1;stroke-linecap:round;stroke-linejoin:bevel;stroke-miterlimit:4;stroke-dasharray:none;stroke-dashoffset:0;stroke-opacity:1"
   sodipodi:nodetypes="cccccccsccccccc" />
<path
   style="opacity:1;fill:#4d4d4d;fill-opacity:1;stroke:none;stroke-width:2;stroke-linejoin:round;stroke-miterlimit:4;stroke-dasharray:none;stroke-opacity:1"
   d="M 4 5 L 4 11 L 5 11 L 7 11 L 7 10 L 5 10 L 5 5 L 4 5 z M 8 5 L 8 11 L 9 11 L 9 7 L 11 11 L 12 11 L 12 10 L 12 5 L 11 5 L 11 9 L 9 5 L 8 5 z "
   id="rect829" />
</svg>

<svg xmlns="http://www.w3.org/2000/svg" viewBox="0 0 16 16">/&gt;<path d="M4.994 2c-1.258.014-2.179-.03-2.932.384a1.88 1.88 0 00-.837.999C1.06 3.82 1 4.343 1 5v6c0 .658.06 1.179.225 1.617.164.44.461.789.837.997.753.415 1.674.371 2.932.386h6.012c1.258-.014 2.179.03 2.932-.384a1.88 1.88 0 00.837-.999c.165-.438.225-.96.225-1.617V5c0-.658-.06-1.179-.225-1.617a1.875 1.875 0 00-.837-.997c-.753-.415-1.674-.371-2.932-.386H4.998z" style="line-height:125%;-inkscape-font-specification:Ubuntu;text-align:center" font-weight="400" font-size="15" font-family="Ubuntu" letter-spacing="0" word-spacing="0" text-anchor="middle" opacity=".6"/><path d="M7.983 3.027c-1.556.01-3.11-.012-4.66.039-.46.042-1.016.206-1.155.71-.219.635-.108 1.333-.146 1.982-.008 2.297-.023 3.596.022 5.885.039.462.202 1.013.699 1.164.632.225 1.284.123 1.936.154 1.424.007 2.85.011 4.276.012 1.704 0 1.408-.005 3.107-.019.512-.012 1.184.02 1.585-.405.421-.54.287-1.268.323-1.904.011-2.444.027-3.911-.022-6.357-.05-.402-.17-.863-.575-1.044-.669-.294-1.427-.168-2.126-.206-1.755-.012-1.51-.012-3.264-.011z" fill="#a6d74f"/><path d="M4 5v6h3v-1H5V5H4zm4 0v6h1V7l2 4h1V5h-1v4L9 5H8z" fill="#4d4d4d"/></svg>
